Automatic/src/svg/Sony - PlayStation 5-content.svg

<svg xmlns="http://www.w3.org/2000/svg" xml:space="preserve" width="320" height="320"><defs><clipPath id="a" clipPathUnits="userSpaceOnUse"><path d="M0 256h256V0H0Z"/></clipPath></defs><g clip-path="url(#a)" transform="matrix(1.33333 0 0 -1.33333 -10.667 330.667)"><path d="M0 0c-6.62 0-12.006 5.381-12.006 11.994C-12.006 18.614-6.62 24 0 24c6.614 0 11.994-5.386 11.994-12.006C11.994 5.381 6.614 0 0 0m0 28c-8.818 0-16.006-7.176-16.006-16.005C-16.006 3.171-8.818-4 0-4c8.823 0 15.994 7.171 15.994 15.995C15.994 20.824 8.823 28 0 28" style="fill:#fff;fill-opacity:1;fill-rule:nonzero;stroke:none" transform="translate(128.006 116)"/><path d="M0 0c-64.071 0-116 51.934-116 116S-64.071 232 0 232c64.051 0 116-51.934 116-116S64.051 0 0 0m84.848 200.853C62.181 223.518 32.048 236 0 236c-32.055 0-62.191-12.482-84.855-35.147S-120 148.054-120 116s12.481-62.189 35.145-84.853C-62.191 8.482-32.055-4 0-4 32.048-4 62.181 8.482 84.848 31.147 107.516 53.813 120 83.948 120 116s-12.484 62.187-35.152 84.853" style="fill:#fff;fill-opacity:1;fill-rule:nonzero;stroke:none" transform="translate(128 12)"/><path d="M0 0c-22.057 0-40.003 17.944-40.003 40S-22.057 80 0 80c22.055 0 39.997-17.944 39.997-40S22.055 0 0 0m0 84c-24.267 0-44.003-19.739-44.003-44S-24.267-4 0-4c24.262 0 43.997 19.739 43.997 44S24.262 84 0 84" style="fill:#fff;fill-opacity:1;fill-rule:nonzero;stroke:none" transform="translate(128.002 88)"/></g></svg>

<?xml version="1.0" encoding="UTF-8" standalone="no"?>
<svg
   xmlns:dc="http://purl.org/dc/elements/1.1/"
   xmlns:cc="http://creativecommons.org/ns#"
   xmlns:rdf="http://www.w3.org/1999/02/22-rdf-syntax-ns#"
   xmlns:svg="http://www.w3.org/2000/svg"
   xmlns="http://www.w3.org/2000/svg"
   viewBox="0 0 320 320"
   height="320"
   width="320"
   xml:space="preserve"
   id="svg2"
   version="1.1"><metadata
     id="metadata8"><rdf:RDF><cc:Work
         rdf:about=""><dc:format>image/svg+xml</dc:format><dc:type
           rdf:resource="http://purl.org/dc/dcmitype/StillImage" /></cc:Work></rdf:RDF></metadata><defs
     id="defs6"><clipPath
       id="clipPath18"
       clipPathUnits="userSpaceOnUse"><path
         id="path16"
         d="M 0,256 H 256 V 0 H 0 Z" /></clipPath></defs><g
     transform="matrix(1.3333333,0,0,-1.3333333,-10.666666,330.66666)"
     id="g10"><g
       id="g12"><g
         clip-path="url(#clipPath18)"
         id="g14"><g
           transform="translate(128.0055,116)"
           id="g20"><path
             id="path22"
             style="fill:#ffffff;fill-opacity:1;fill-rule:nonzero;stroke:none"
             d="M 0,0 C -6.62,0 -12.006,5.381 -12.006,11.994 -12.006,18.614 -6.62,24 0,24 6.614,24 11.994,18.614 11.994,11.994 11.994,5.381 6.614,0 0,0 M 0,28 C -8.818,28 -16.006,20.824 -16.006,11.995 -16.006,3.171 -8.818,-4 0,-4 8.823,-4 15.994,3.171 15.994,11.995 15.994,20.824 8.823,28 0,28" /></g><g
           transform="translate(128,12)"
           id="g24"><path
             id="path26"
             style="fill:#ffffff;fill-opacity:1;fill-rule:nonzero;stroke:none"
             d="m 0,0 c -64.071,0 -116,51.934 -116,116 0,64.066 51.929,116 116,116 64.051,0 116,-51.934 116,-116 C 116,51.934 64.051,0 0,0 M 84.848,200.853 C 62.181,223.518 32.048,236 0,236 -32.055,236 -62.191,223.518 -84.855,200.853 -107.519,178.189 -120,148.054 -120,116 -120,83.946 -107.519,53.811 -84.855,31.147 -62.191,8.482 -32.055,-4 0,-4 32.048,-4 62.181,8.482 84.848,31.147 107.516,53.813 120,83.948 120,116 c 0,32.052 -12.484,62.187 -35.152,84.853" /></g><g
           transform="translate(128.0025,88)"
           id="g28"><path
             id="path30"
             style="fill:#ffffff;fill-opacity:1;fill-rule:nonzero;stroke:none"
             d="M 0,0 C -22.057,0 -40.003,17.944 -40.003,40 -40.003,62.056 -22.057,80 0,80 22.055,80 39.997,62.056 39.997,40 39.997,17.944 22.055,0 0,0 M 0,84 C -24.267,84 -44.003,64.261 -44.003,40 -44.003,15.739 -24.267,-4 0,-4 24.262,-4 43.997,15.739 43.997,40 43.997,64.261 24.262,84 0,84" /></g></g></g></g></svg>
